src/view/frontend/web/svg/heroicons/solid/template.svg

<svg viewBox="0 0 20 20" fill="currentColor" xmlns="http://www.w3.org/2000/svg">
<path d="M3 4C3 3.44772 3.44772 3 4 3H16C16.5523 3 17 3.44772 17 4V6C17 6.55228 16.5523 7 16 7H4C3.44772 7 3 6.55228 3 6V4Z" />
<path d="M3 10C3 9.44771 3.44772 9 4 9H10C10.5523 9 11 9.44771 11 10V16C11 16.5523 10.5523 17 10 17H4C3.44772 17 3 16.5523 3 16V10Z" />
<path d="M14 9C13.4477 9 13 9.44771 13 10V16C13 16.5523 13.4477 17 14 17H16C16.5523 17 17 16.5523 17 16V10C17 9.44771 16.5523 9 16 9H14Z" />
</svg>

<svg xmlns="http://www.w3.org/2000/svg" viewBox="0 0 20 20" fill="currentColor">
  <path d="M3 4a1 1 0 011-1h12a1 1 0 011 1v2a1 1 0 01-1 1H4a1 1 0 01-1-1V4zM3 10a1 1 0 011-1h6a1 1 0 011 1v6a1 1 0 01-1 1H4a1 1 0 01-1-1v-6zM14 9a1 1 0 00-1 1v6a1 1 0 001 1h2a1 1 0 001-1v-6a1 1 0 00-1-1h-2z"/>
</svg>
